computer_icons/svgs/rip.svg

<?xml version="1.0" encoding="UTF-8" standalone="no"?>
<!-- Created with Inkscape (http://www.inkscape.org/) -->

<svg
   xmlns:dc="http://purl.org/dc/elements/1.1/"
   xmlns:cc="http://creativecommons.org/ns#"
   xmlns:rdf="http://www.w3.org/1999/02/22-rdf-syntax-ns#"
   xmlns:svg="http://www.w3.org/2000/svg"
   xmlns="http://www.w3.org/2000/svg"
   xmlns:sodipodi="http://sodipodi.sourceforge.net/DTD/sodipodi-0.dtd"
   xmlns:inkscape="http://www.inkscape.org/namespaces/inkscape"
   width="33"
   height="33"
   viewBox="0 0 8.7312498 8.7312502"
   version="1.1"
   id="svg8"
   inkscape:version="0.92.1 unknown"
   sodipodi:docname="rip.svg">
  <defs
     id="defs2" />
  <sodipodi:namedview
     id="base"
     pagecolor="#ffffff"
     bordercolor="#666666"
     borderopacity="1.0"
     inkscape:pageopacity="0.0"
     inkscape:pageshadow="2"
     inkscape:zoom="2.8"
     inkscape:cx="36.286573"
     inkscape:cy="-36.854235"
     inkscape:document-units="px"
     inkscape:current-layer="layer1"
     showgrid="false"
     units="px"
     inkscape:snap-global="true"
     showguides="false"
     inkscape:guide-bbox="true">
    <sodipodi:guide
       position="4.4294084,6.5082777"
       orientation="1,0"
       id="guide4520"
       inkscape:locked="false" />
  </sodipodi:namedview>
  <metadata
     id="metadata5">
    <rdf:RDF>
      <cc:Work
         rdf:about="">
        <dc:format>image/svg+xml</dc:format>
        <dc:type
           rdf:resource="http://purl.org/dc/dcmitype/StillImage" />
        <dc:title></dc:title>
      </cc:Work>
    </rdf:RDF>
  </metadata>
  <g
     inkscape:label="tomb-stone"
     inkscape:groupmode="layer"
     id="layer1"
     transform="translate(0,-288.26873)">
    <g
       id="g4511"
       transform="matrix(0.26458333,0,0,0.26458333,0.13229168,288.40102)">
      <g
         id="text4577"
         style="font-style:normal;font-weight:normal;font-size:15.34520054px;line-height:1.25;font-family:sans-serif;letter-spacing:0px;word-spacing:0px;fill:#000000;fill-opacity:1;stroke:#000000;stroke-width:0.99507672;stroke-miterlimit:4;stroke-dasharray:none;stroke-opacity:1"
         transform="scale(1.0830723,0.92329939)"
         aria-label="T" />
      <g
         inkscape:label="test"
         id="layer1-6">
        <g
           id="text822"
           style="font-style:normal;font-variant:normal;font-weight:bold;font-stretch:normal;font-size:22.55261993px;line-height:1.25;font-family:sans-serif;-inkscape-font-specification:'sans-serif Bold';letter-spacing:0px;word-spacing:0px;fill:#000000;fill-opacity:1;stroke:none;stroke-width:0.56381553"
           transform="matrix(1.2275249,0,0,0.81464742,0.18321795,0)"
           aria-label="?" />
      </g>
    </g>
    <path
       style="opacity:1;vector-effect:none;fill:#ff9000;fill-opacity:1;fill-rule:evenodd;stroke:none;stroke-width:2.62957859px;stroke-linecap:butt;stroke-linejoin:miter;stroke-miterlimit:4;stroke-dasharray:none;stroke-dashoffset:0;stroke-opacity:1"
       d="M 14.773438 4.6972656 C 12.986365 4.6972656 11.145894 4.983705 9.7109375 6.1054688 C 6.5223625 8.5174497 5.0707516 12.581957 4.8203125 16.457031 C 4.7492045 20.404748 4.7472733 24.354375 4.8183594 28.302734 L 16.5 28.302734 L 28.181641 28.302734 C 28.252726 24.354375 28.250792 20.404748 28.179688 16.457031 C 27.929248 12.581957 26.477637 8.5174497 23.289062 6.1054688 C 21.854108 4.9836672 20.013634 4.6972656 18.226562 4.6972656 L 16.5 4.6972656 L 14.773438 4.6972656 z M 7.1367188 12.423828 L 10.345703 12.423828 C 11.419445 12.423828 12.206425 12.60448 12.705078 12.964844 C 13.207371 13.325178 13.458984 13.894914 13.458984 14.673828 C 13.458984 15.212509 13.326518 15.654205 13.064453 16 C 12.806027 16.345766 12.414756 16.601818 11.890625 16.765625 C 12.17817 16.83124 12.436443 16.980058 12.662109 17.212891 C 12.891416 17.44211 13.12252 17.792093 13.355469 18.261719 L 14.496094 20.576172 L 12.257812 20.576172 L 11.263672 18.550781 C 11.063482 18.143128 10.859811 17.864082 10.652344 17.714844 C 10.448514 17.565692 10.176125 17.490234 9.8339844 17.490234 L 9.2382812 17.490234 L 9.2382812 20.576172 L 7.1367188 20.576172 L 7.1367188 12.423828 z M 15.740234 12.423828 L 17.841797 12.423828 L 17.841797 20.576172 L 15.740234 20.576172 L 15.740234 12.423828 z M 19.912109 12.423828 L 23.400391 12.423828 C 24.437734 12.423828 25.233859 12.654904 25.787109 13.117188 C 26.343999 13.5758 26.621094 14.232287 26.621094 15.083984 C 26.621094 15.939324 26.343999 16.598263 25.787109 17.060547 C 25.233859 17.51916 24.437734 17.748047 23.400391 17.748047 L 22.013672 17.748047 L 22.013672 20.576172 L 19.912109 20.576172 L 19.912109 12.423828 z M 9.2382812 13.947266 L 9.2382812 16.039062 L 10.123047 16.039062 C 10.563463 16.039062 10.877137 15.956573 11.066406 15.792969 C 11.259315 15.629075 11.355469 15.359162 11.355469 14.984375 C 11.355469 14.613114 11.259315 14.347636 11.066406 14.1875 C 10.877137 14.027364 10.563463 13.947266 10.123047 13.947266 L 9.2382812 13.947266 z M 22.013672 13.947266 L 22.013672 16.224609 L 23.175781 16.224609 C 23.583439 16.224609 23.899066 16.126244 24.121094 15.929688 C 24.343122 15.729662 24.455078 15.448135 24.455078 15.083984 C 24.455078 14.720008 24.343122 14.438744 24.121094 14.242188 C 23.899066 14.045631 23.583439 13.947266 23.175781 13.947266 L 22.013672 13.947266 z "
       transform="matrix(0.26458333,0,0,0.26458333,0,288.26873)"
       id="rect4513" />
    <g
       aria-label="RIP"
       style="font-style:normal;font-weight:normal;font-size:3.52777767px;font-family:sans-serif;letter-spacing:0px;word-spacing:0px;fill:#000000;fill-opacity:1;stroke:none;stroke-width:0.26458332"
       id="text4530"
       transform="translate(0.10022607)">
      <g
         id="g4591"
         transform="matrix(1.1471828,0,0,1.1471828,-0.77947047,-42.44655)" />
    </g>
  </g>
</svg>

<svg xmlns="http://www.w3.org/2000/svg" height="33" width="33" version="1.1" viewBox="0 0 8.7312498 8.7312502">
	<g transform="translate(0 -288.27)">
		<g transform="matrix(.26458 0 0 .26458 .13229 288.4)"></g>
		<path style="fill:#ff9000;fill-rule:evenodd" d="m14.773 4.6973c-1.787 0-3.627 0.2864-5.0621 1.4082-3.1885 2.4119-4.6401 6.4765-4.8906 10.352-0.0711 3.947-0.073 7.896-0.0019 11.845h11.682 11.682c0.071-3.949 0.069-7.898-0.002-11.846-0.251-3.875-1.702-7.9396-4.891-10.352-1.435-1.1213-3.275-1.4077-5.062-1.4077h-1.727-1.727zm-7.6363 7.7267h3.2093c1.073 0 1.86 0.18 2.359 0.541 0.502 0.36 0.754 0.93 0.754 1.709 0 0.539-0.132 0.98-0.395 1.326-0.258 0.346-0.649 0.602-1.173 0.766 0.287 0.065 0.545 0.214 0.771 0.447 0.229 0.229 0.461 0.579 0.693 1.049l1.141 2.314h-2.238l-0.994-2.025c-0.201-0.408-0.404-0.687-0.612-0.836-0.203-0.149-0.476-0.225-0.818-0.225h-0.5957v3.086h-2.1016v-8.152zm8.6033 0h2.102v8.152h-2.102v-8.152zm4.172 0h3.488c1.038 0 1.834 0.231 2.387 0.693 0.557 0.459 0.834 1.115 0.834 1.967 0 0.855-0.277 1.514-0.834 1.977-0.553 0.458-1.349 0.687-2.387 0.687h-1.386v2.828h-2.102v-8.152zm-10.674 1.523v2.092h0.8847c0.44 0 0.754-0.082 0.943-0.246 0.193-0.164 0.289-0.434 0.289-0.809 0-0.371-0.096-0.636-0.289-0.796-0.189-0.161-0.503-0.241-0.943-0.241h-0.8847zm12.776 0v2.278h1.162c0.407 0 0.723-0.099 0.945-0.295 0.222-0.2 0.334-0.482 0.334-0.846s-0.112-0.645-0.334-0.842c-0.222-0.196-0.538-0.295-0.945-0.295h-1.162z" transform="matrix(.26458 0 0 .26458 0 288.27)"/>
		<g aria-label="RIP" transform="translate(.10023)"></g>
	</g>
</svg>
